SF_Symbols/app.badge.svg

<?xml version="1.0" encoding="UTF-8"?>
<svg xmlns="http://www.w3.org/2000/svg" xmlns:xlink="http://www.w3.org/1999/xlink" width="24" height="24" viewBox="0 0 24 24" version="1.1">
<g id="surface1">
<path style=" stroke:none;fill-rule:nonzero;fill:rgb(100%,100%,100%);fill-opacity:1;" d="M 1.125 17.46875 C 1.125 18.410156 1.199219 19.273438 1.34375 20.050781 C 1.492188 20.824219 1.847656 21.488281 2.414062 22.046875 C 2.980469 22.613281 3.652344 22.96875 4.421875 23.117188 C 5.203125 23.273438 6.0625 23.347656 7.003906 23.347656 L 15.574219 23.347656 C 16.515625 23.347656 17.375 23.273438 18.15625 23.117188 C 18.933594 22.96875 19.605469 22.613281 20.171875 22.046875 C 20.730469 21.488281 21.085938 20.824219 21.230469 20.050781 C 21.386719 19.273438 21.464844 18.410156 21.464844 17.46875 L 21.464844 9.960938 C 21.21875 10.046875 20.96875 10.113281 20.703125 10.15625 C 20.4375 10.195312 20.167969 10.207031 19.898438 10.191406 C 19.859375 10.199219 19.824219 10.207031 19.785156 10.214844 C 19.757812 10.214844 19.722656 10.21875 19.6875 10.222656 L 19.6875 17.769531 C 19.6875 18.34375 19.632812 18.902344 19.523438 19.445312 C 19.417969 19.980469 19.203125 20.417969 18.871094 20.757812 C 18.539062 21.089844 18.097656 21.304688 17.546875 21.40625 C 17.003906 21.519531 16.449219 21.574219 15.882812 21.574219 L 6.707031 21.574219 C 6.140625 21.574219 5.582031 21.519531 5.03125 21.40625 C 4.484375 21.304688 4.042969 21.089844 3.707031 20.757812 C 3.375 20.417969 3.15625 19.980469 3.054688 19.445312 C 2.953125 18.902344 2.902344 18.34375 2.902344 17.769531 L 2.902344 8.714844 C 2.902344 8.132812 2.953125 7.570312 3.054688 7.027344 C 3.15625 6.472656 3.375 6.03125 3.707031 5.703125 C 4.035156 5.363281 4.476562 5.144531 5.03125 5.039062 C 5.589844 4.9375 6.15625 4.886719 6.738281 4.886719 L 14.347656 4.886719 C 14.347656 4.84375 14.347656 4.804688 14.347656 4.777344 C 14.355469 4.738281 14.363281 4.707031 14.371094 4.675781 C 14.363281 4.398438 14.378906 4.128906 14.414062 3.871094 C 14.460938 3.605469 14.523438 3.351562 14.601562 3.109375 L 6.980469 3.109375 C 6.054688 3.109375 5.203125 3.1875 4.421875 3.34375 C 3.652344 3.488281 2.980469 3.84375 2.414062 4.410156 C 1.855469 4.96875 1.5 5.636719 1.34375 6.40625 C 1.199219 7.179688 1.125 8.03125 1.125 8.957031 Z M 19.675781 8.722656 C 20.367188 8.722656 21.003906 8.550781 21.585938 8.207031 C 22.164062 7.859375 22.628906 7.398438 22.972656 6.816406 C 23.320312 6.234375 23.492188 5.59375 23.492188 4.898438 C 23.492188 4.199219 23.320312 3.558594 22.972656 2.976562 C 22.628906 2.398438 22.164062 1.933594 21.585938 1.589844 C 21.003906 1.242188 20.367188 1.070312 19.675781 1.070312 C 18.96875 1.070312 18.328125 1.242188 17.746094 1.589844 C 17.171875 1.933594 16.714844 2.398438 16.367188 2.976562 C 16.023438 3.558594 15.847656 4.199219 15.847656 4.898438 C 15.847656 5.59375 16.023438 6.234375 16.367188 6.816406 C 16.714844 7.398438 17.171875 7.859375 17.746094 8.207031 C 18.328125 8.550781 18.96875 8.722656 19.675781 8.722656 Z M 19.675781 8.722656 "/>
</g>
</svg>

<svg xmlns="http://www.w3.org/2000/svg" width="24" height="24"><path style="stroke:none;fill-rule:nonzero;fill:#fff;fill-opacity:1" d="M1.125 17.469c0 .941.074 1.804.219 2.582.14.762.515 1.457 1.07 1.996a3.8 3.8 0 0 0 2.008 1.07c.781.156 1.64.23 2.582.23h8.57c.942 0 1.801-.074 2.582-.23a3.795 3.795 0 0 0 2.016-1.07c.55-.54.922-1.238 1.058-1.996.157-.778.235-1.64.235-2.582V9.96a4.637 4.637 0 0 1-.762.195c-.265.04-.535.051-.805.035l-.113.024c-.027 0-.062.004-.098.008v7.547c0 .574-.054 1.132-.164 1.675-.105.535-.32.973-.652 1.313-.332.332-.773.547-1.324.648a8.209 8.209 0 0 1-1.664.168H6.707a8.323 8.323 0 0 1-1.676-.168c-.547-.101-.988-.316-1.324-.648-.332-.34-.55-.778-.652-1.313a9.286 9.286 0 0 1-.153-1.675V8.715c0-.582.051-1.145.153-1.688.101-.554.32-.996.652-1.324.328-.34.77-.558 1.324-.664a9.599 9.599 0 0 1 1.707-.152h7.61v-.11c.007-.039.015-.07.023-.101-.008-.27.008-.54.043-.805.047-.266.11-.52.188-.762H6.98c-.925 0-1.777.079-2.558.235A3.767 3.767 0 0 0 2.414 4.41a3.862 3.862 0 0 0-1.07 1.996c-.153.84-.223 1.696-.219 2.551Zm18.55-8.746c.692 0 1.329-.172 1.91-.516a3.94 3.94 0 0 0 1.388-1.39c.347-.583.52-1.223.52-1.919 0-.699-.173-1.34-.52-1.921a3.93 3.93 0 0 0-1.387-1.387 3.658 3.658 0 0 0-1.91-.52c-.707 0-1.348.172-1.93.52a3.972 3.972 0 0 0-1.379 1.387 3.737 3.737 0 0 0-.52 1.921c0 .696.176 1.336.52 1.918.336.57.813 1.051 1.38 1.391.585.344 1.25.523 1.929.516Zm0 0"/></svg>
